img/darkm0de.svg

<svg width="42" height="42" viewBox="0 0 42 42" fill="none" xmlns="http://www.w3.org/2000/svg">
<rect width="42" height="42" rx="21" fill="white" fill-opacity="0.2"/>
<path d="M29.8668 11.1201C27.5201 8.98679 24.4135 7.70679 21.0001 7.70679C13.6668 7.70679 7.70679 13.6668 7.70679 21.0001C7.70679 28.3335 13.6668 34.2935 21.0001 34.2935C24.4135 34.2935 27.5201 33.0135 29.8668 30.8801C32.5868 28.4668 34.2935 24.9201 34.2935 21.0001C34.2935 17.0801 32.5868 13.5335 29.8668 11.1201ZM20.9601 26.8535C20.9335 29.0535 19.2935 29.5868 17.7601 28.9735C14.6001 27.7068 12.3735 24.6135 12.3735 21.0001C12.3735 17.3868 14.6001 14.2935 17.7601 13.0135C19.2935 12.4001 20.9335 12.9468 20.9601 15.1335V26.8535Z" fill="white"/>
</svg>

<svg xmlns="http://www.w3.org/2000/svg" width="42" height="42" fill="none"><rect width="42" height="42" fill="#fff" fill-opacity=".2" rx="21"/><path fill="#fff" d="M29.867 11.12A13.115 13.115 0 0 0 21 7.707c-7.333 0-13.293 5.96-13.293 13.293 0 7.334 5.96 13.294 13.293 13.294 3.413 0 6.52-1.28 8.867-3.414A13.187 13.187 0 0 0 34.294 21c0-3.92-1.707-7.466-4.427-9.88ZM20.96 26.854c-.027 2.2-1.666 2.733-3.2 2.12A8.585 8.585 0 0 1 12.373 21a8.617 8.617 0 0 1 5.387-7.986c1.534-.614 3.173-.067 3.2 2.12v11.72Z"/></svg>
